; generated by PrusaSlicer 2.9.0 on 2025-12-08 at 20:06:07 UTC

; 

; external perimeters extrusion width = 0.45mm
; perimeters extrusion width = 0.45mm
; infill extrusion width = 0.45mm
; solid infill extrusion width = 0.45mm
; top infill extrusion width = 0.45mm
; support material extrusion width = 0.35mm
; first layer extrusion width = 0.42mm

; external perimeters extrusion width = 0.45mm
; perimeters extrusion width = 0.45mm
; infill extrusion width = 0.45mm
; solid infill extrusion width = 0.45mm
; top infill extrusion width = 0.45mm
; support material extrusion width = 0.35mm
; first layer extrusion width = 0.42mm

; external perimeters extrusion width = 0.45mm
; perimeters extrusion width = 0.45mm
; infill extrusion width = 0.45mm
; solid infill extrusion width = 0.45mm
; top infill extrusion width = 0.45mm
; support material extrusion width = 0.35mm
; first layer extrusion width = 0.42mm

M73 P0 R87
M201 X9000 Y9000 Z500 E10000 ; sets maximum accelerations, mm/sec^2
M203 X500 Y500 Z12 E120 ; sets maximum feedrates, mm / sec
M204 S2000 T1500 ; sets acceleration (S) and retract acceleration (R), mm/sec^2
M205 X10.00 Y10.00 Z0.20 E2.50 ; sets the jerk limits, mm/sec
M205 S0 T0 ; sets the minimum extruding and travel feed rate, mm/sec

; printing object MAP-krabicka-v4.stl id:1 copy 0
; stop printing object MAP-krabicka-v4.stl id:1 copy 0
; printing object MAP-vycko-v4.stl id:2 copy 0
; stop printing object MAP-vycko-v4.stl id:2 copy 0
; printing object MAP-prsten-v1.stl id:0 copy 0
; stop printing object MAP-prsten-v1.stl id:0 copy 0

;TYPE:Custom
M862.3 P "MK2S" ; printer model check
M862.1 P0.4 ; nozzle diameter check
M115 U3.2.3 ; tell printer latest fw version
G90 ; use absolute coordinates
M83 ; extruder relative mode
M204 S2000 T1500 ; MK2 firmware only supports the old M204 format
M104 S240 ; set extruder temp
M140 S85 ; set bed temp
M190 S85 ; wait for bed temp
M109 S240 ; wait for extruder temp
G28 W ; home all without mesh bed level
G80 ; mesh bed leveling
G1 Z0.2 F720
G1 Y-2 F1000 ; go outside print area
G92 E0
G1 X60 E9 F1000 ; intro line
G1 X100 E12.5 F1000 ; intro line
G92 E0
G21 ; set units to millimeters
G90 ; use absolute coordinates
M83 ; use relative distances for extrusion

M900 K0.08 ; Filament gcode LA 1.5
M900 K45 ; Filament gcode LA 1.0




M107
;LAYER_CHANGE
;Z:0.2
;HEIGHT:0.2
G1 E-1 F2100
G1 Z.4 F720
G1 X48.509 Y53.732 F10800
G1 Z.2 F720
G1 E1 F2100
M204 S800
;TYPE:Skirt/Brim
;WIDTH:0.42
G1 F1200
G1 X49.515 Y53.431 E.03292
G1 X141.139 Y49.001 E2.87616
G1 X151.778 Y48.999 E.33358
G1 X153.026 Y49.39 E.04101
G1 X153.827 Y50.419 E.04089
G1 X160.78 Y68.962 E.62093
G1 X160.92 Y69.73 E.02448
G1 X160.92 Y89.534 E.62094
G1 X160.72 Y90.449 E.02937
M73 P0 R86
G1 X153.775 Y105.547 E.52107
G1 X153.064 Y106.409 E.03504
G1 X107.255 Y139.338 E1.76889
G1 X105.549 Y140.37 E.06252
G1 X103.89 Y141.135 E.05728
G1 X102.384 Y141.654 E.04994
G1 X100.605 Y142.072 E.0573
G1 X98.556 Y142.311 E.06468
G1 X96.625 Y142.303 E.06055
G1 X94.911 Y142.119 E.05405
G1 X93.352 Y141.791 E.04995
G1 X91.431 Y141.17 E.0633
G1 X76.86 Y134.965 E.49656
G1 X76.191 Y134.52 E.02519
G1 X48.095 Y107.186 E1.22905
G1 X47.633 Y106.532 E.02511
G1 X40.688 Y91.435 E.52104
G1 X40.488 Y90.52 E.02937
G1 X40.488 Y70.714 E.621
G1 X40.688 Y69.8 E.02934
G1 X47.633 Y54.702 E.52107
G1 X48.469 Y53.776 E.03912
M204 S1000
;WIPE_START
G1 F8640
G1 X48.509 Y53.732 E-.01373
G1 X49.515 Y53.431 E-.24246
G1 X52.733 Y53.275 E-.74381
;WIPE_END
G1 Z.4 F720
; printing object MAP-krabicka-v4.stl id:1 copy 0
G1 X126.282 Y108.077 F10800
G1 Z.2 F720
G1 E1 F2100
M204 S800
;TYPE:Support material
G1 F1200
G1 X118.067 Y108.077 E.25758
G1 X118.067 Y105.112 E.09297
G1 X126.282 Y105.112 E.25758
G1 X126.282 Y108.02 E.09118
M204 S1000
G1 X126.282 Y108.02 F10800
G1 X125.678 Y107.907
M204 S800
G1 F1200
G1 X125.678 Y105.452 E.07697
G1 X125.259 Y105.452 E.01314
G1 X125.259 Y107.738 E.07168
G1 X124.84 Y107.738 E.01314
G1 X124.84 Y105.452 E.07168
G1 X124.421 Y105.452 E.01314
G1 X124.421 Y107.738 E.07168
G1 X124.002 Y107.738 E.01314
G1 X124.002 Y105.452 E.07168
G1 X123.583 Y105.452 E.01314
G1 X123.583 Y107.738 E.07168
G1 X123.164 Y107.738 E.01314
G1 X123.164 Y105.452 E.07168
G1 X122.745 Y105.452 E.01314
G1 X122.745 Y107.738 E.07168
G1 X122.326 Y107.738 E.01314
G1 X122.326 Y105.452 E.07168
G1 X121.907 Y105.452 E.01314
G1 X121.907 Y107.738 E.07168
G1 X121.488 Y107.738 E.01314
G1 X121.488 Y105.452 E.07168
G1 X121.069 Y105.452 E.01314
G1 X121.069 Y107.738 E.07168
G1 X120.65 Y107.738 E.01314
G1 X120.65 Y105.452 E.07168
G1 X120.231 Y105.452 E.01314
G1 X120.231 Y107.738 E.07168
G1 X119.812 Y107.738 E.01314
G1 X119.812 Y105.452 E.07168
G1 X119.393 Y105.452 E.01314
G1 X119.393 Y107.738 E.07168
G1 X118.974 Y107.738 E.01314
G1 X118.974 Y105.452 E.07168
G1 X118.555 Y105.452 E.01314
G1 X118.555 Y107.907 E.07697
M204 S1000
;WIPE_START
G1 F8640
G1 X118.555 Y105.452 E-.56687
G1 X118.974 Y105.452 E-.09675
G1 X118.974 Y106.909 E-.33638
;WIPE_END
G1 Z.4 F720
G1 X108.307 Y73.652 F10800
G1 Z.2 F720
G1 E1 F2100
M204 S800
G1 F1200
G1 X108.188 Y73.652 E.00373
G1 X107.907 Y73.933 E.01246
G1 X107.907 Y85.331 E.35738
G1 X108.188 Y85.612 E.01246
G1 X108.307 Y85.612 E.00373
G1 X108.307 Y89.534 E.12297
G1 X101.842 Y89.534 E.20271
G1 X101.842 Y69.73 E.62094
G1 X108.307 Y69.73 E.20271
G1 X108.307 Y73.596 E.12122
M204 S1000
;WIPE_START
G1 F8640
G1 X108.307 Y69.73 E-.89267
G1 X107.842 Y69.73 E-.10733
;WIPE_END
G1 Z.4 F720
G1 X107.662 Y89.365 F10800
G1 Z.2 F720
G1 E1 F2100
M204 S800
G1 F1200
G1 X107.662 Y70.069 E.60501
G1 X107.243 Y70.069 E.01314
G1 X107.243 Y89.195 E.59968
G1 X106.824 Y89.195 E.01314
G1 X106.824 Y70.069 E.59968
G1 X106.405 Y70.069 E.01314
G1 X106.405 Y89.195 E.59968
G1 X105.986 Y89.195 E.01314
G1 X105.986 Y70.069 E.59968
G1 X105.567 Y70.069 E.01314
G1 X105.567 Y89.195 E.59968
G1 X105.148 Y89.195 E.01314
G1 X105.148 Y70.069 E.59968
G1 X104.729 Y70.069 E.01314
G1 X104.729 Y89.195 E.59968
G1 X104.31 Y89.195 E.01314
G1 X104.31 Y70.069 E.59968
G1 X103.891 Y70.069 E.01314
G1 X103.891 Y89.195 E.59968
G1 X103.472 Y89.195 E.01314
G1 X103.472 Y70.069 E.59968
G1 X103.053 Y70.069 E.01314
G1 X103.053 Y89.195 E.59968
G1 X102.634 Y89.195 E.01314
G1 X102.634 Y70.069 E.59968
G1 X102.215 Y70.069 E.01314
G1 X102.215 Y89.365 E.60501
M204 S1000
;WIPE_START
G1 F8640
G1 X102.215 Y85.034 E-1
;WIPE_END
G1 Z.4 F720
G1 X158.731 Y89.534 F10800
G1 Z.2 F720
G1 E1 F2100
M204 S800
G1 F1200
G1 X152.267 Y89.534 E.20267
G1 X152.267 Y85.612 E.12297
G1 X152.385 Y85.612 E.0037
G1 X152.667 Y85.331 E.01248
G1 X152.667 Y73.933 E.35738
G1 X152.385 Y73.652 E.01248
G1 X152.267 Y73.652 E.0037
G1 X152.267 Y69.73 E.12297
G1 X158.731 Y69.73 E.20267
G1 X158.731 Y89.478 E.61918
M204 S1000
G1 X158.731 Y89.478 F10800
G1 X158.358 Y89.365
M204 S800
G1 F1200
G1 X158.358 Y70.069 E.60501
G1 X157.939 Y70.069 E.01314
G1 X157.939 Y89.195 E.59968
G1 X157.52 Y89.195 E.01314
G1 X157.52 Y70.069 E.59968
G1 X157.101 Y70.069 E.01314
M73 P1 R86
G1 X157.101 Y89.195 E.59968
G1 X156.682 Y89.195 E.01314
G1 X156.682 Y70.069 E.59968
G1 X156.263 Y70.069 E.01314
G1 X156.263 Y89.195 E.59968
G1 X155.844 Y89.195 E.01314
G1 X155.844 Y70.069 E.59968
G1 X155.425 Y70.069 E.01314
G1 X155.425 Y89.195 E.59968
G1 X155.006 Y89.195 E.01314
G1 X155.006 Y70.069 E.59968
G1 X154.587 Y70.069 E.01314
G1 X154.587 Y89.195 E.59968
G1 X154.168 Y89.195 E.01314
G1 X154.168 Y70.069 E.59968
G1 X153.749 Y70.069 E.01314
G1 X153.749 Y89.195 E.59968
G1 X153.33 Y89.195 E.01314
G1 X153.33 Y70.069 E.59968
G1 X152.911 Y70.069 E.01314
G1 X152.911 Y89.365 E.60501
M204 S1000
;WIPE_START
G1 F8640
G1 X152.911 Y85.034 E-1
;WIPE_END
G1 Z.4 F720
G1 X151.778 Y54.152 F10800
G1 Z.2 F720
G1 E1 F2100
M204 S800
G1 F1200
G1 X141.245 Y54.152 E.33025
G1 X141.245 Y51.187 E.09297
G1 X151.778 Y51.187 E.33025
G1 X151.778 Y54.096 E.09121
M204 S1000
G1 X151.778 Y54.096 F10800
G1 X151.235 Y53.982
M204 S800
G1 F1200
G1 X151.235 Y51.527 E.07697
G1 X150.816 Y51.527 E.01314
G1 X150.816 Y53.813 E.07168
G1 X150.397 Y53.813 E.01314
G1 X150.397 Y51.527 E.07168
G1 X149.978 Y51.527 E.01314
G1 X149.978 Y53.813 E.07168
G1 X149.559 Y53.813 E.01314
G1 X149.559 Y51.527 E.07168
G1 X149.141 Y51.527 E.01311
G1 X149.141 Y53.813 E.07168
G1 X148.722 Y53.813 E.01314
G1 X148.722 Y51.527 E.07168
G1 X148.303 Y51.527 E.01314
G1 X148.303 Y53.813 E.07168
G1 X147.884 Y53.813 E.01314
G1 X147.884 Y51.527 E.07168
G1 X147.465 Y51.527 E.01314
G1 X147.465 Y53.813 E.07168
G1 X147.046 Y53.813 E.01314
G1 X147.046 Y51.527 E.07168
G1 X146.627 Y51.527 E.01314
G1 X146.627 Y53.813 E.07168
G1 X146.208 Y53.813 E.01314
G1 X146.208 Y51.527 E.07168
G1 X145.789 Y51.527 E.01314
G1 X145.789 Y53.813 E.07168
G1 X145.37 Y53.813 E.01314
G1 X145.37 Y51.527 E.07168
G1 X144.951 Y51.527 E.01314
G1 X144.951 Y53.813 E.07168
G1 X144.532 Y53.813 E.01314
G1 X144.532 Y51.527 E.07168
G1 X144.113 Y51.527 E.01314
G1 X144.113 Y53.813 E.07168
G1 X143.694 Y53.813 E.01314
G1 X143.694 Y51.527 E.07168
G1 X143.275 Y51.527 E.01314
G1 X143.275 Y53.813 E.07168
G1 X142.856 Y53.813 E.01314
G1 X142.856 Y51.527 E.07168
G1 X142.437 Y51.527 E.01314
G1 X142.437 Y53.813 E.07168
G1 X142.018 Y53.813 E.01314
G1 X142.018 Y51.527 E.07168
G1 X141.599 Y51.527 E.01314
G1 X141.599 Y53.982 E.07697
M204 S1000
;WIPE_START
G1 F8640
G1 X141.599 Y51.527 E-.56687
G1 X142.018 Y51.527 E-.09675
G1 X142.018 Y52.984 E-.33638
;WIPE_END
G1 Z.4 F720
G1 X109.37 Y74.744 F10800
G1 Z.2 F720
G1 E1 F2100
M204 S800
;TYPE:Perimeter
;WIDTH:0.419999
G1 F1200
G1 X109.451 Y74.705 E.00282
G1 X109.526 Y74.582 E.00452
G1 X109.574 Y74.354 E.00731
G1 X109.574 Y55.419 E.59369
G1 X150.999 Y55.419 E1.29885
G1 X150.999 Y74.354 E.59369
G1 X151.005 Y74.433 E.00248
M73 P1 R85
G1 X151.122 Y74.705 E.00928
G1 X151.399 Y74.839 E.00965
G1 X151.399 Y84.425 E.30056
G1 X151.122 Y84.559 E.00965
G1 X151.048 Y84.682 E.0045
G1 X150.999 Y84.911 E.00734
G1 X150.999 Y103.845 E.59366
G1 X109.574 Y103.845 E1.29885
G1 X109.574 Y84.911 E.59366
G1 X109.568 Y84.832 E.00248
G1 X109.451 Y84.559 E.00931
G1 X109.174 Y84.425 E.00965
G1 X109.174 Y74.839 E.30056
G1 X109.316 Y74.77 E.00495
M204 S1000
G1 X109.316 Y74.77 F10800
G1 X109.111 Y74.493
M204 S800
;TYPE:External perimeter
G1 F1200
G1 X109.156 Y74.471 E.00157
G1 X109.197 Y74.354 E.00389
G1 X109.197 Y55.042 E.60551
G1 X151.377 Y55.042 E1.32252
G1 X151.377 Y74.354 E.60551
G1 X151.393 Y74.43 E.00244
G1 X151.565 Y74.542 E.00644
G1 X151.777 Y74.542 E.00665
G1 X151.777 Y74.754 E.00665
G1 X151.777 Y84.722 E.31254
G1 X151.565 Y84.722 E.00665
G1 X151.417 Y84.794 E.00516
G1 X151.377 Y84.911 E.00388
G1 X151.377 Y104.222 E.60548
G1 X109.197 Y104.222 E1.32252
G1 X109.197 Y84.911 E.60548
G1 X109.181 Y84.835 E.00244
G1 X109.008 Y84.722 E.00648
G1 X108.797 Y84.722 E.00662
G1 X108.797 Y74.542 E.31919
G1 X109.008 Y74.542 E.00662
G1 X109.057 Y74.519 E.0017
M204 S1000
;WIPE_START
G1 F8640
G1 X109.111 Y74.493 E-.01384
G1 X109.156 Y74.471 E-.01157
G1 X109.197 Y74.354 E-.02863
G1 X109.197 Y70.257 E-.94596
;WIPE_END
G1 Z.4 F720
G1 X150.83 Y56.353 F10800
G1 Z.2 F720
G1 E1 F2100
M204 S800
;TYPE:Solid infill
;WIDTH:0.420812
G1 F1200
G1 X150.235 Y55.759 E.02642
G1 X149.701 Y55.759 E.01678
G1 X150.66 Y56.718 E.04262
G1 X150.66 Y57.252 E.01678
G1 X149.167 Y55.759 E.06634
G1 X148.632 Y55.759 E.01681
G1 X150.66 Y57.787 E.09012
G1 X150.66 Y58.321 E.01678
G1 X148.098 Y55.759 E.11385
G1 X147.563 Y55.759 E.01681
G1 X150.66 Y58.855 E.1376
G1 X150.66 Y59.39 E.01681
G1 X147.029 Y55.759 E.16135
G1 X146.495 Y55.759 E.01678
G1 X150.66 Y59.924 E.18508
G1 X150.66 Y60.459 E.01681
G1 X145.96 Y55.759 E.20885
G1 X145.426 Y55.759 E.01678
G1 X150.66 Y60.993 E.23258
G1 X150.66 Y61.527 E.01678
G1 X144.891 Y55.759 E.25634
G1 X144.357 Y55.759 E.01678
G1 X150.66 Y62.062 E.28009
G1 X150.66 Y62.596 E.01678
G1 X143.822 Y55.759 E.30384
G1 X143.288 Y55.759 E.01678
G1 X150.66 Y63.131 E.32759
G1 X150.66 Y63.665 E.01678
G1 X142.754 Y55.759 E.35132
G1 X142.219 Y55.759 E.01681
G1 X150.66 Y64.2 E.37509
G1 X150.66 Y64.734 E.01678
G1 X141.685 Y55.759 E.39882
G1 X141.15 Y55.759 E.01681
G1 X150.66 Y65.268 E.42258
G1 X150.66 Y65.803 E.01681
G1 X140.616 Y55.759 E.44633
G1 X140.081 Y55.759 E.01681
G1 X150.66 Y66.337 E.47008
G1 X150.66 Y66.872 E.01681
G1 X139.547 Y55.759 E.49383
G1 X139.013 Y55.759 E.01678
G1 X150.66 Y67.406 E.51756
G1 X150.66 Y67.94 E.01678
G1 X138.478 Y55.759 E.54131
G1 X137.944 Y55.759 E.01678
G1 X150.66 Y68.475 E.56506
G1 X150.66 Y69.009 E.01678
G1 X137.409 Y55.759 E.58882
G1 X136.875 Y55.759 E.01678
G1 X150.66 Y69.544 E.61257
G1 X150.66 Y70.078 E.01678
G1 X136.341 Y55.759 E.6363
G1 X135.806 Y55.759 E.01681
G1 X150.66 Y70.613 E.66007
G1 X150.66 Y71.147 E.01678
M73 P2 R85
G1 X135.272 Y55.759 E.6838
G1 X134.737 Y55.759 E.01681
G1 X150.66 Y71.681 E.70755
G1 X150.66 Y72.216 E.01681
G1 X134.203 Y55.759 E.7313
G1 X133.668 Y55.759 E.01681
G1 X150.66 Y72.75 E.75505
G1 X150.66 Y73.285 E.01681
G1 X133.134 Y55.759 E.77881
G1 X132.6 Y55.759 E.01678
G1 X150.66 Y73.819 E.80254
G1 X150.66 Y74.354 E.01681
G1 X132.065 Y55.759 E.82631
G1 X131.531 Y55.759 E.01678
G1 X151.06 Y75.288 E.86781
G1 X151.06 Y75.822 E.01678
G1 X130.996 Y55.759 E.89157
G1 X130.462 Y55.759 E.01678
G1 X151.06 Y76.357 E.91532
G1 X151.06 Y76.891 E.01678
G1 X129.928 Y55.759 E.93905
G1 X129.393 Y55.759 E.01681
G1 X151.06 Y77.426 E.96282
G1 X151.06 Y77.96 E.01678
G1 X128.859 Y55.759 E.98655
G1 X128.324 Y55.759 E.01681
G1 X151.06 Y78.494 E1.0103
G1 X151.06 Y79.029 E.01681
G1 X127.79 Y55.759 E1.03405
G1 X127.255 Y55.759 E.01681
G1 X151.06 Y79.563 E1.05781
G1 X151.06 Y80.098 E.01681
G1 X126.721 Y55.759 E1.08156
G1 X126.187 Y55.759 E.01678
G1 X151.06 Y80.632 E1.10529
G1 X151.06 Y81.167 E.01681
G1 X125.652 Y55.759 E1.12906
G1 X125.118 Y55.759 E.01678
G1 X151.06 Y81.701 E1.15279
G1 X151.06 Y82.235 E.01678
M73 P2 R84
G1 X124.583 Y55.759 E1.17654
G1 X124.049 Y55.759 E.01678
G1 X151.06 Y82.77 E1.20029
G1 X151.06 Y83.304 E.01678
G1 X123.514 Y55.759 E1.22404
G1 X122.98 Y55.759 E.01678
G1 X151.06 Y83.839 E1.2478
G1 X151.06 Y84.233 E.01238
G1 X150.966 Y84.279 E.00329
G1 X122.446 Y55.759 E1.26735
G1 X121.911 Y55.759 E.01681
G1 X150.732 Y84.579 E1.2807
G1 X150.699 Y84.64 E.00218
G1 X150.66 Y84.899 E.00823
G1 X150.66 Y85.042 E.00449
G1 X121.377 Y55.759 E1.30125
G1 X120.842 Y55.759 E.01681
G1 X150.66 Y85.576 E1.32501
G1 X150.66 Y86.111 E.01681
G1 X120.308 Y55.759 E1.34876
G1 X119.774 Y55.759 E.01678
G1 X150.66 Y86.645 E1.37249
G1 X150.66 Y87.18 E.01681
G1 X119.239 Y55.759 E1.39626
G1 X118.705 Y55.759 E.01678
M73 P3 R84
G1 X150.66 Y87.714 E1.41999
G1 X150.66 Y88.248 E.01678
G1 X118.17 Y55.759 E1.44374
G1 X117.636 Y55.759 E.01678
G1 X150.66 Y88.783 E1.46749
G1 X150.66 Y89.317 E.01678
G1 X117.101 Y55.759 E1.49125
G1 X116.567 Y55.759 E.01678
G1 X150.66 Y89.852 E1.515
G1 X150.66 Y90.386 E.01678
G1 X116.033 Y55.759 E1.53873
G1 X115.498 Y55.759 E.01681
G1 X150.66 Y90.921 E1.5625
G1 X150.66 Y91.455 E.01678
G1 X114.964 Y55.759 E1.58623
G1 X114.429 Y55.759 E.01681
G1 X150.66 Y91.989 E1.60998
G1 X150.66 Y92.524 E.01681
G1 X113.895 Y55.759 E1.63373
G1 X113.36 Y55.759 E.01681
G1 X150.66 Y93.058 E1.65749
G1 X150.66 Y93.593 E.01681
G1 X112.826 Y55.759 E1.68124
G1 X112.292 Y55.759 E.01678
G1 X150.66 Y94.127 E1.70497
G1 X150.66 Y94.661 E.01678
G1 X111.757 Y55.759 E1.72872
G1 X111.223 Y55.759 E.01678
M73 P3 R83
G1 X150.66 Y95.196 E1.75247
G1 X150.66 Y95.73 E.01678
G1 X110.688 Y55.759 E1.77622
G1 X110.154 Y55.759 E.01678
G1 X150.66 Y96.265 E1.79997
G1 X150.66 Y96.799 E.01678
G1 X109.913 Y56.052 E1.81068
G1 X109.913 Y56.586 E.01678
G1 X150.66 Y97.334 E1.8107
G1 X150.66 Y97.868 E.01678
G1 X109.913 Y57.121 E1.81068
G1 X109.913 Y57.655 E.01678
M73 P4 R83
G1 X150.66 Y98.402 E1.81068
G1 X150.66 Y98.937 E.01681
G1 X109.913 Y58.19 E1.81068
G1 X109.913 Y58.724 E.01678
G1 X150.66 Y99.471 E1.81068
G1 X150.66 Y100.006 E.01681
G1 X109.913 Y59.259 E1.81068
G1 X109.913 Y59.793 E.01678
G1 X150.66 Y100.54 E1.81068
G1 X150.66 Y101.075 E.01681
G1 X109.913 Y60.327 E1.8107
G1 X109.913 Y60.862 E.01681
G1 X150.66 Y101.609 E1.81068
G1 X150.66 Y102.143 E.01678
G1 X109.913 Y61.396 E1.81068
G1 X109.913 Y61.931 E.01681
G1 X150.66 Y102.678 E1.81068
G1 X150.66 Y103.212 E.01678
