; HEADER_BLOCK_START
; generated by ElegooSlicer 1.3.0.11 on 2026-02-06 at 12:38:39
; total layer number: 85
; filament_density: 1.25
; filament_diameter: 1.75
; max_z_height: 17.00
; HEADER_BLOCK_END



; THUMBNAIL_BLOCK_START

;
; THUMBNAIL_BLOCK_END

; external perimeters extrusion width = 0.42mm
; perimeters extrusion width = 0.45mm
; infill extrusion width = 0.45mm
; solid infill extrusion width = 0.42mm
; top infill extrusion width = 0.42mm
; first layer extrusion width = 0.50mm

; EXECUTABLE_BLOCK_START
EXCLUDE_OBJECT_DEFINE NAME=MAP-krabicka_redesign-v1.stl_id_0_copy_0 CENTER=128,128 POLYGON=[[101,107],[101.136,105.965],[101.536,105],[102.172,104.172],[103,103.536],[103.965,103.136],[125.5,98],[130.5,98],[152.035,103.136],[153,103.536],[153.828,104.172],[154.464,105],[154.864,105.965],[155,107],[155,149],[154.864,150.035],[154.464,151],[153.828,151.828],[153,152.464],[152.035,152.864],[129.265,157.848],[128.5,158],[127.5,158],[126.735,157.848],[103.965,152.864],[103,152.464],[102.172,151.828],[101.536,151],[101.136,150.035],[101,149],[101,107]]
M73 P0 R21
M106 S0
M106 P2 S0
;TYPE:Custom
;;===== date: 20251011 =====================
;printer_model:Elegoo Centauri Carbon
;initial_filament:PLA
;curr_bed_type:Textured PEI Plate
;bed_level_temp:60
M400 ; wait for buffer to clear
M220 S100 ;Set the feed speed to 100%
M221 S100 ;Set the flow rate to 100%
M104 S140
M140 S60
G90
G28 ;home
M729 ;Clean Nozzle
M190 S60


;=============turn on fans to prevent PLA jamming=================

    
    M106 P3 S255
    ;Prevent PLA from jamming


;enable_pressure_advance:false
;This value is called if pressure advance is enabled

M204 S5000 ;Call exterior wall print acceleration


G1 X128 Y-1.2 F20000
G1 Z0.3 F900
M109 S210
M83
G92 E0 ;Reset Extruder
G1 F6000 
G1 X-1.2 E10.156 ;Draw the first line
G1 Y98.8 E7.934
G1 X-0.5 Y100 E0.1
G1 Y-0.3 E7.934
G1 X78 E6.284
G1 F1680 
G1 X98 E2
G1 F8400 
G1 X118 E2
G1 F1680 
G1 X138 E2
G1 F8400 
G1 X158 E2
G1 F8400 
G1 X178 E2
;End PA test.


G3 I-1 J0 Z0.6 F1200.0 ;Move to side a little
G1 F20000
G92 E0 ;Reset Extruder
;LAYER_COUNT:85
;LAYER:0
G90
G21
M83 ; use relative distances for extrusion
; filament start gcode
M106 P3 S200


M106 P2 S0
;LAYER_CHANGE
;Z:0.2
;HEIGHT:0.2
;BEFORE_LAYER_CHANGE
;0.2
G92 E0

G1 E-.8 F1800
;LAYER:1

;_SET_FAN_SPEED_CHANGING_LAYER
SET_VELOCITY_LIMIT ACCEL=500
EXCLUDE_OBJECT_START NAME=MAP-krabicka_redesign-v1.stl_id_0_copy_0
G1 X121.247 Y132.835 F30000
G1 Z.6
G1 Z.2
G1 E.8 F1800
;TYPE:Inner wall
;WIDTH:0.5
G1 F3000
G1 X120.407 Y131.381 E.06069
G1 X119.87 Y129.728 E.06278
G1 X119.688 Y128 E.06278
G1 X119.87 Y126.272 E.06278
G1 X120.357 Y124.775 E.05688
G1 X120.407 Y124.619 E.0059
G1 X121.276 Y123.115 E.06278
G1 X122.439 Y121.823 E.06278
G1 X123.844 Y120.802 E.06278
G1 X125.432 Y120.095 E.06278
G1 X127.131 Y119.734 E.06278
G1 X128.869 Y119.734 E.06278
G1 X130.568 Y120.095 E.06278
G1 X132.156 Y120.802 E.06278
G1 X133.561 Y121.823 E.06278
G1 X134.724 Y123.115 E.06278
G1 X135.593 Y124.619 E.06278
G1 X136.13 Y126.272 E.06278
G1 X136.312 Y128 E.06278
G1 X136.13 Y129.728 E.06278
G1 X135.593 Y131.381 E.06278
G1 X134.724 Y132.885 E.06278
G1 X133.561 Y134.177 E.06278
G1 X132.156 Y135.198 E.06278
G1 X130.568 Y135.905 E.06278
G1 X128.869 Y136.266 E.06278
G1 X127.131 Y136.266 E.06278
G1 X125.432 Y135.905 E.06278
G1 X123.844 Y135.198 E.06278
G1 X122.439 Y134.177 E.06278
G1 X121.276 Y132.885 E.06278
G1 X121.267 Y132.87 E.00064
G1 X121.654 Y132.623 F30000
;TYPE:Outer wall
G1 F3000
G1 X121.648 Y132.615 E.00035
G1 X120.827 Y131.194 E.05931
G1 X120.32 Y129.633 E.05931
G1 X120.148 Y128 E.05931
G1 X120.32 Y126.367 E.05931
G1 X120.791 Y124.916 E.05514
G1 X120.827 Y124.806 E.00416
G1 X121.648 Y123.385 E.05931
G1 X122.746 Y122.165 E.05931
G1 X124.074 Y121.2 E.05931
G1 X125.574 Y120.532 E.05931
G1 X127.179 Y120.191 E.05931
G1 X128.821 Y120.191 E.05931
G1 X130.426 Y120.532 E.05931
G1 X131.926 Y121.2 E.05931
G1 X133.254 Y122.165 E.05931
G1 X134.352 Y123.385 E.05931
G1 X135.173 Y124.806 E.05931
G1 X135.68 Y126.367 E.05931
G1 X135.852 Y128 E.05931
G1 X135.68 Y129.633 E.05931
G1 X135.173 Y131.194 E.05931
G1 X134.352 Y132.615 E.05931
G1 X133.254 Y133.835 E.05931
G1 X131.926 Y134.8 E.05931
G1 X130.426 Y135.468 E.05931
G1 X128.821 Y135.809 E.05931
G1 X127.179 Y135.809 E.05931
G1 X125.574 Y135.468 E.05931
G1 X124.074 Y134.8 E.05931
G1 X122.746 Y133.835 E.05931
G1 X121.681 Y132.652 E.05751
G1 E-.728 F1800
;WIPE_START
G1 F30000
G1 X121.648 Y132.615 E-.00299
G1 X121.073 Y131.619 E-.06901
;WIPE_END
G1 X122.855 Y139.04 Z.6
G1 X126.289 Y153.337 Z.6
G1 Z.2
G1 E.8 F1800
;TYPE:Inner wall
G1 F3000
G1 X126.328 Y152.199 E.04116
G1 X105.053 Y152.193 E.76864
G1 X104.175 Y152.077 E.03198
G1 X103.407 Y151.759 E.03005
G1 X102.747 Y151.253 E.03005
G1 X102.241 Y150.593 E.03005
G1 X101.923 Y149.825 E.03005
G1 X101.807 Y148.947 E.03198
G1 X101.807 Y107.053 E1.51359
G1 X101.923 Y106.175 E.03198
G1 X102.241 Y105.407 E.03005
G1 X102.747 Y104.747 E.03005
G1 X103.407 Y104.241 E.03005
G1 X104.175 Y103.923 E.03005
G1 X105.053 Y103.807 E.03198
G1 X126.335 Y103.798 E.76891
G1 X126.282 Y102.658 E.04125
G1 X126.91 Y103.103 E.0278
M73 P1 R21
G1 X128 Y103.323 E.04019
G1 X129.09 Y103.103 E.04019
G1 X129.718 Y102.658 E.0278
G1 X129.665 Y103.798 E.04125
G1 X150.947 Y103.807 E.76891
G1 X151.825 Y103.923 E.03198
G1 X152.593 Y104.241 E.03005
G1 X153.253 Y104.747 E.03005
G1 X153.759 Y105.407 E.03005
G1 X154.077 Y106.175 E.03005
G1 X154.193 Y107.053 E.03198
G1 X154.193 Y148.947 E1.51359
G1 X154.077 Y149.825 E.03198
G1 X153.759 Y150.593 E.03005
G1 X153.253 Y151.253 E.03005
G1 X152.593 Y151.759 E.03005
G1 X151.825 Y152.077 E.03005
G1 X150.947 Y152.193 E.03198
G1 X129.672 Y152.199 E.76864
G1 X129.711 Y153.337 E.04116
G1 X129.09 Y152.897 E.02748
G1 X128.001 Y152.677 E.04016
G2 X126.909 Y152.897 I36.836 J185.533 E.04023
G1 X126.322 Y153.314 E.02603
G1 E-.728 F1800
;WIPE_START
G1 F30000
G1 X126.328 Y152.199 E-.06692
G1 X126.243 Y152.199 E-.00508
;WIPE_END
G1 X125.75 Y155.475 Z.6
G1 Z.2
G1 E.8 F1800
;TYPE:Outer wall
G1 F3000
G1 X125.75 Y154.296 E.0426
G2 X125.855 Y152.654 I-19.586 J-2.078 E.05946
G1 X105.023 Y152.65 E.75264
G1 X104.056 Y152.523 E.03523
G1 X103.177 Y152.158 E.0344
G1 X102.421 Y151.579 E.0344
G1 X101.842 Y150.823 E.0344
G1 X101.477 Y149.944 E.0344
G1 X101.35 Y148.977 E.03523
G1 X101.35 Y107.023 E1.51575
G1 X101.477 Y106.056 E.03523
G1 X101.842 Y105.177 E.0344
G1 X102.421 Y104.421 E.0344
G1 X103.177 Y103.842 E.0344
G1 X104.056 Y103.477 E.0344
G1 X105.023 Y103.35 E.03523
G1 X125.856 Y103.343 E.75269
G2 X125.75 Y101.983 I-7.928 J-.063 E.04934
G1 X125.75 Y100.525 E.0527
G1 X125.917 Y101.363 E.03088
G3 X126.348 Y102.113 I-2.628 J2.01 E.03136
G2 X127.095 Y102.674 I5.564 J-6.629 E.03377
G1 X128 Y102.857 E.03335
G1 X128.905 Y102.674 E.03335
G2 X129.652 Y102.113 I-4.817 J-7.189 E.03377
G3 X130.083 Y101.363 I3.059 J1.26 E.03136
G1 X130.25 Y100.525 E.03088
G1 X130.25 Y101.983 E.0527
G2 X130.144 Y103.343 I7.821 J1.297 E.04934
G1 X150.977 Y103.35 E.75269
G1 X151.944 Y103.477 E.03523
G1 X152.823 Y103.842 E.0344
G1 X153.579 Y104.421 E.0344
G1 X154.158 Y105.177 E.0344
G1 X154.523 Y106.056 E.0344
G1 X154.65 Y107.023 E.03523
G1 X154.65 Y148.977 E1.51575
G1 X154.523 Y149.944 E.03523
G1 X154.158 Y150.823 E.0344
G1 X153.579 Y151.579 E.0344
G1 X152.823 Y152.158 E.0344
G1 X151.944 Y152.523 E.0344
G1 X150.977 Y152.65 E.03523
G1 X130.145 Y152.654 E.75264
G2 X130.25 Y154.296 I19.69 J-.436 E.05946
G1 X130.25 Y155.475 E.0426
G1 X130.083 Y154.637 E.03088
G3 X129.652 Y153.887 I2.628 J-2.01 E.03136
G2 X128.905 Y153.326 I-5.565 J6.63 E.03377
G1 X128 Y153.143 E.03334
G2 X127.095 Y153.326 I30.522 J153.587 E.03337
G2 X126.348 Y153.887 I4.816 J7.188 E.03376
G3 X125.917 Y154.637 I-3.059 J-1.26 E.03136
G1 X125.758 Y155.436 E.02943
G1 E-.728 F1800
;WIPE_START
G1 F30000
G1 X125.75 Y154.296 E-.06839
G1 X125.756 Y154.236 E-.00361
;WIPE_END
G1 X126.391 Y146.63 Z.6
G1 X130.25 Y100.475 Z.6
G1 Z.2
G1 E.8 F1800
G1 F3000
G1 X130.083 Y99.637 E.03088
G3 X129.613 Y98.887 I6.466 J-4.581 E.032
G3 X128.863 Y98.417 I3.831 J-6.936 E.032
G1 X128.025 Y98.25 E.03088
G1 X129.483 Y98.25 E.05271
G1 X129.978 Y98.316 E.01802
G1 X130.175 Y98.325 E.00714
G2 X130.25 Y99.017 I4.015 J-.084 E.02517
G1 X130.25 Y100.435 E.05126
G1 E-.728 F1800
;WIPE_START
G1 F30000
G1 X130.083 Y99.637 E-.04893
G1 X129.87 Y99.317 E-.02307
;WIPE_END
G1 X125.75 Y100.475 Z.6
G1 Z.2
G1 E.8 F1800
G1 F3000
G1 X125.75 Y99.017 E.05271
G2 X125.825 Y98.325 I-3.94 J-.775 E.02517
G2 X126.517 Y98.25 I-.084 J-4.015 E.02517
G1 X127.975 Y98.25 E.05271
G1 X127.913 Y98.262 E.0023
G1 X127.137 Y98.417 E.02858
G3 X126.387 Y98.887 I-4.581 J-6.466 E.032
G3 X125.917 Y99.637 I-6.936 J-3.831 E.032
G1 X125.758 Y100.436 E.02943
G1 E-.728 F1800
;WIPE_START
G1 F30000
G1 X125.751 Y99.236 E-.072
;WIPE_END
G1 X126.359 Y106.844 Z.6
G1 X130.25 Y155.525 Z.6
G1 Z.2
G1 E.8 F1800
G1 F3000
G1 X130.25 Y155.975 E.01629
G1 X130.112 Y156.668 E.02551
G1 X129.734 Y157.234 E.0246
G1 X129.168 Y157.612 E.0246
G1 X128.475 Y157.75 E.02551
G1 X128.025 Y157.75 E.01628
G1 X128.863 Y157.583 E.03088
G1 X129.594 Y157.094 E.03179
G1 X130.083 Y156.363 E.03179
G1 X130.242 Y155.564 E.02943
G1 E-.728 F1800
;WIPE_START
G1 F30000
G1 X130.25 Y155.975 E-.0247
G1 X130.112 Y156.668 E-.04236
G1 X130.066 Y156.736 E-.00494
;WIPE_END
G1 X125.75 Y155.525 Z.6
G1 Z.2
G1 E.8 F1800
G1 F3000
G1 X125.917 Y156.363 E.03088
G1 X126.406 Y157.094 E.03179
G1 X127.137 Y157.583 E.03179
G1 X127.975 Y157.75 E.03088
G1 X127.525 Y157.75 E.01629
G1 X126.832 Y157.612 E.02551
G1 X126.266 Y157.234 E.0246
G1 X125.888 Y156.668 E.0246
G1 X125.75 Y155.975 E.02551
G1 X125.75 Y155.565 E.01484
G1 E-.728 F1800
;WIPE_START
G1 F30000
G1 X125.917 Y156.363 E-.04893
G1 X126.13 Y156.683 E-.02307
;WIPE_END
G1 X129.837 Y150.01 Z.6
G1 X153.912 Y106.671 Z.6
G1 Z.2
G1 E.8 F1800
;TYPE:Bottom surface
;WIDTH:0.500519
G1 F6300
G1 X151.568 Y104.327 E.11989
G1 X150.836 Y104.241 E.02668
M73 P2 R21
G1 X153.759 Y107.164 E.14952
G1 X153.759 Y107.812 E.02341
G1 X150.188 Y104.241 E.18264
G1 X149.541 Y104.241 E.02342
G1 X153.759 Y108.459 E.21576
G1 X153.759 Y109.106 E.02341
G1 X148.893 Y104.24 E.24887
G1 X148.246 Y104.24 E.02342
G1 X153.759 Y109.753 E.28199
G1 X153.759 Y110.4 E.02341
G1 X147.598 Y104.24 E.31511
G1 X146.951 Y104.24 E.02342
G1 X153.759 Y111.047 E.34823
G1 X153.759 Y111.694 E.02341
G1 X146.304 Y104.239 E.38134
G1 X145.656 Y104.239 E.02342
G1 X153.759 Y112.342 E.41446
G1 X153.759 Y112.989 E.02341
G1 X145.009 Y104.239 E.44758
G1 X144.361 Y104.238 E.02342
G1 X153.759 Y113.636 E.48069
G1 X153.759 Y114.283 E.02341
G1 X143.714 Y104.238 E.51381
G1 X143.067 Y104.238 E.02342
G1 X153.759 Y114.93 E.54693
G1 X153.759 Y115.577 E.02341
G1 X142.419 Y104.238 E.58004
G1 X141.772 Y104.237 E.02342
G1 X153.759 Y116.224 E.61316
G1 X153.759 Y116.872 E.02341
G1 X141.124 Y104.237 E.64628
G1 X140.477 Y104.237 E.02342
G1 X153.759 Y117.519 E.67939
G1 X153.759 Y118.166 E.02341
G1 X139.829 Y104.237 E.71251
G1 X139.182 Y104.236 E.02342
G1 X153.759 Y118.813 E.74563
G1 X153.759 Y119.46 E.02341
G1 X138.535 Y104.236 E.77874
G1 X137.887 Y104.236 E.02342
G1 X153.759 Y120.107 E.81186
G1 X153.759 Y120.754 E.02341
G1 X137.24 Y104.235 E.84498
G1 X136.592 Y104.235 E.02342
G1 X153.759 Y121.402 E.87809
G1 X153.759 Y122.049 E.02341
G1 X135.945 Y104.235 E.91121
G1 X135.297 Y104.235 E.02342
G1 X153.759 Y122.696 E.94433
G1 X153.759 Y123.343 E.02341
G1 X134.65 Y104.234 E.97744
G1 X134.003 Y104.234 E.02342
G1 X153.759 Y123.99 E1.01056
G1 X153.759 Y124.637 E.02341
G1 X133.355 Y104.234 E1.04368
G1 X132.708 Y104.233 E.02342
G1 X153.759 Y125.284 E1.07679
G1 X153.759 Y125.932 E.02341
G1 X132.06 Y104.233 E1.10991
G1 X131.413 Y104.233 E.02342
G1 X153.759 Y126.579 E1.14303
G1 X153.759 Y127.226 E.02341
G1 X130.766 Y104.233 E1.17614
G1 X130.118 Y104.232 E.02342
G1 X153.759 Y127.873 E1.20926
G1 X153.759 Y128.52 E.02341
G1 X128.836 Y103.597 E1.27484
G1 X128.298 Y103.706 E.01987
M73 P3 R21
G1 X153.759 Y129.167 E1.30238
G1 X153.759 Y129.814 E.02341
G1 X127.637 Y103.693 E1.33616
G1 X126.826 Y103.529 E.02992
G1 X153.759 Y130.462 E1.37763
G1 X153.759 Y131.109 E.02341
G1 X126.786 Y104.136 E1.37972
G1 X126.79 Y104.232 E.00349
G1 X126.235 Y104.232 E.02008
G1 X153.759 Y131.756 E1.40788
G1 X153.759 Y132.403 E.02341
G1 X125.588 Y104.233 E1.44097
G1 X124.941 Y104.233 E.0234
G1 X153.759 Y133.05 E1.47406
G1 X153.759 Y133.697 E.02341
G1 X124.295 Y104.233 E1.50715
G1 X123.648 Y104.233 E.0234
G1 X153.759 Y134.344 E1.54023
G1 X153.759 Y134.992 E.02341
G1 X123.001 Y104.234 E1.57332
G1 X122.354 Y104.234 E.0234
G1 X153.759 Y135.639 E1.60641
G1 X153.759 Y136.286 E.02341
M73 P3 R20
G1 X121.707 Y104.234 E1.6395
G1 X121.06 Y104.235 E.0234
G1 X153.759 Y136.933 E1.67259
G1 X153.759 Y137.58 E.02341
G1 X120.413 Y104.235 E1.70568
G1 X119.767 Y104.235 E.0234
G1 X153.759 Y138.227 E1.73877
G1 X153.759 Y138.874 E.02341
G1 X119.12 Y104.235 E1.77185
G1 X118.473 Y104.236 E.0234
G1 X153.759 Y139.522 E1.80494
G1 X153.759 Y140.169 E.02341
G1 X117.826 Y104.236 E1.83803
G1 X117.179 Y104.236 E.0234
G1 X153.759 Y140.816 E1.87112
G1 X153.759 Y141.463 E.02341
G1 X116.532 Y104.236 E1.90421
G1 X115.885 Y104.237 E.0234
M73 P4 R20
G1 X131.83 Y120.182 E.81562
G1 X130.676 Y119.674 E.04563
G1 X115.238 Y104.237 E.78964
G1 X114.592 Y104.237 E.0234
G1 X129.854 Y119.499 E.78069
G1 X129.032 Y119.325 E.03039
G1 X113.945 Y104.238 E.77174
G1 X113.298 Y104.238 E.0234
G1 X128.36 Y119.3 E.77045
G1 X127.713 Y119.3 E.02341
G1 X112.651 Y104.238 E.77044
G1 X112.004 Y104.238 E.0234
G1 X127.069 Y119.303 E.7706
G1 X126.535 Y119.417 E.01974
G1 X111.357 Y104.239 E.77639
G1 X110.71 Y104.239 E.0234
G1 X126.002 Y119.53 E.78218
G1 X125.468 Y119.644 E.01974
G1 X110.063 Y104.239 E.78797
G1 X109.417 Y104.239 E.0234
G1 X124.993 Y119.815 E.79674
G1 X124.545 Y120.015 E.01773
G1 X108.77 Y104.24 E.80692
G1 X108.123 Y104.24 E.0234
G1 X124.097 Y120.214 E.81711
G1 X123.649 Y120.414 E.01773
G1 X107.476 Y104.24 E.82729
G1 X106.829 Y104.241 E.0234
G1 X123.271 Y120.682 E.84101
G1 X122.896 Y120.954 E.01676
G1 X106.182 Y104.241 E.85493
G1 X105.535 Y104.241 E.0234
G1 X122.521 Y121.227 E.86884
G1 X122.146 Y121.499 E.01676
G1 X104.911 Y104.264 E.88162
G1 X104.339 Y104.339 E.02086
G1 X121.84 Y121.84 E.89519
G1 X121.533 Y122.18 E.01657
G1 X103.871 Y104.519 E.90342
G2 X103.456 Y104.75 I.225 J.891 E.0174
G1 X121.226 Y122.521 E.90898
G1 X120.92 Y122.862 E.01658
G1 X103.09 Y105.031 E.91206
G1 X103.057 Y105.057 E.00151
G1 X102.801 Y105.39 E.01518
G1 X120.684 Y123.272 E.91471
G1 X120.447 Y123.682 E.01714
G1 X102.553 Y105.789 E.9153
G1 X102.363 Y106.246 E.01791
G1 X120.21 Y124.093 E.91288
G1 X120.008 Y124.442 E.01458
G1 X119.985 Y124.515 E.00277
G1 X102.277 Y106.807 E.90576
G2 X102.241 Y107.418 I2.303 J.443 E.0222
G1 X119.826 Y125.003 E.89948
G1 X119.667 Y125.491 E.01858
G1 X102.241 Y108.066 E.89136
G1 X102.241 Y108.713 E.02341
G1 X119.508 Y125.98 E.88325
G2 X119.407 Y126.525 I1.233 J.512 E.02022
M73 P5 R20
G1 X102.241 Y109.36 E.87805
G1 X102.241 Y110.007 E.02341
G1 X119.345 Y127.111 E.8749
G1 X119.284 Y127.697 E.0213
G1 X102.241 Y110.654 E.87175
G1 X102.241 Y111.301 E.02341
G1 X119.288 Y128.348 E.872
G1 X119.364 Y129.072 E.0263
G1 X102.241 Y111.948 E.87588
G1 X102.241 Y112.596 E.02341
G1 X119.44 Y129.795 E.87977
G1 X119.744 Y130.746 E.0361
G1 X102.241 Y113.243 E.8953
G1 X102.241 Y113.89 E.02341
G1 X120.705 Y132.353 E.94444
G1 E-.728 F1800
;WIPE_START
G1 F30000
G1 X119.856 Y131.505 E-.072
;WIPE_END
G1 X126.658 Y128.043 Z.6
G1 X135.295 Y123.647 Z.6
G1 Z.2
G1 E.8 F1800
G1 F6300
G1 X153.759 Y142.11 E.94444
G1 X153.759 Y142.757 E.02341
G1 X136.256 Y125.254 E.8953
G1 X136.56 Y126.205 E.0361
G1 X153.759 Y143.404 E.87977
G1 X153.759 Y144.052 E.02341
G1 X136.636 Y126.928 E.87588
G1 X136.712 Y127.651 E.0263
G1 X153.759 Y144.699 E.872
G1 X153.759 Y145.346 E.02341
G1 X136.716 Y128.303 E.87175
G1 X136.655 Y128.889 E.0213
G1 X153.759 Y145.993 E.8749
G1 X153.759 Y146.64 E.02341
G1 X136.593 Y129.475 E.87805
G3 X136.492 Y130.02 I-1.334 J.034 E.02022
G1 X153.759 Y147.287 E.88325
G1 X153.759 Y147.934 E.02341
G1 X136.333 Y130.509 E.89136
G1 X136.174 Y130.997 E.01858
